src/assets/logo-sm.svg

<svg viewBox="0 0 36 36" xmlns="http://www.w3.org/2000/svg" xmlns:xlink="http://www.w3.org/1999/xlink"><linearGradient id="a"><stop offset="0" stop-color="#f9ed32"/><stop offset="1" stop-color="#0090b8"/></linearGradient><linearGradient id="b" x1="-5.794309%" x2="101.985774%" xlink:href="#a" y1="63.561477%" y2="26.70769%"/><linearGradient id="c" x1="51.063845%" x2="49.651792%" y1="105.056489%" y2=".840452%"><stop offset="0" stop-color="#f9ed32"/><stop offset=".02" stop-color="#f3e93c"/><stop offset="1" stop-color="#0090b8"/></linearGradient><linearGradient id="d" x1="97.570912%" x2="-8.684805%" xlink:href="#a" y1="80.861972%" y2="34.923064%"/><linearGradient id="e" x1="103.601067%" x2="13.500296%" xlink:href="#a" y1="32.589983%" y2="69.439866%"/><linearGradient id="f" x1="48.786145%" x2="50.399164%" xlink:href="#a" y1="-1.653576%" y2="98.580681%"/><linearGradient id="g" x1="-.573512%" x2="112.307125%" xlink:href="#a" y1="18.058485%" y2="66.631847%"/><g fill="none"><path d="m18 0c-9.9411255 0-18 8.0588745-18 18s8.0588745 18 18 18 18-8.0588745 18-18c-.0173389-9.93393462-8.0660654-17.98266109-18-18zm7.371 23.4c-1.1889867 1.7471556-2.5535903 3.3680935-4.0725 4.8375-1.3505448-.6435878-2.8065981-1.0369509-4.2975-1.161-2.1074409-.1536042-4.1931748-.5261106-6.2235-1.1115-.1197006-1.4900661-.5084843-2.9460992-1.1475-4.2975-.91787244-1.9024742-1.63717447-3.8945035-2.1465-5.9445 1.23196566-.8507321 2.29926793-1.9180343 3.15-3.15 1.1817983-1.7447877 2.5388513-3.36420421 4.05-4.833 1.3497347.65762658 2.8071066 1.06617853 4.302 1.206 2.1032403.14993121 4.1856005.51483429 6.2145 1.089.1158936 1.4955698.5064155 2.9569759 1.152 4.311.9163938 1.9035713 1.6370915 3.8952905 2.151 5.9445-1.2299175.8441233-2.2970819 1.9036651-3.15 3.1275z" fill="#fff"/><path d="m17.8319502 0c-9.65212991.01306834-17.548496 7.93325177-17.8319502 17.8857521 1.39596918.2293043 6.66864256.6649824 10.5542383-5.0034199 4.5035566-6.58103354 7.5577949-7.97520371 11.5323059-8.4383984 3.2053942-.38064514 6.6686425.24306256 7.9134558.49988338-3.3000457-3.18245362-7.6505319-4.95002832-12.1680498-4.94381718z" fill="url(#b)"/><path d="m9.85087476 21.5323781c-3.36883166-7.054285-3.00265431-10.3168917-1.37316508-13.96307526 1.17030703-2.38856184 2.69354402-4.60129128 4.52229032-6.56930284-6.90985453 2.03289836-11.94006979 7.77963301-12.85250125 14.6832512-.91243147 6.9036182 2.46250031 13.6810518 8.62315281 17.3167488.91544339-1.0890052 3.98217874-5.4317994 1.0802232-11.4676219z" fill="url(#c)"/><path d="m18.3008297 36c3.0385315.0048285 6.0296856-.7391746 8.6991703-2.1638297-.5192175-1.341188-2.8556962-6.1381704-9.710278-6.7551168-7.97044397-.7108297-10.72594031-2.682376-13.16717343-5.9280509-1.97667011-2.6197872-3.22005936-5.9682865-3.64363153-7.1530026-1.269472 5.3338931.01563884 10.9447726 3.48874358 15.232087 3.47310473 4.2873144 8.75285958 6.7803204 14.33316908 6.767913z" fill="url(#d)"/><path d="m18.163604 36c9.6538562-.0105807 17.5528883-7.9306244 17.836396-17.8838471-1.3959692-.2338656-6.6686426-.664912-10.5542383 4.9983043-4.5035566 6.5849219-7.5577949 7.9743588-11.5323059 8.44209-2.6476021.2260947-5.31298798.0561988-7.9134558-.504416 3.29823911 3.1827034 7.6470145 4.951681 12.163604 4.9478688z" fill="url(#e)"/><path d="m26.1444129 14.4647926c3.3683609 7.055257 3.0027315 10.3183134 1.3711103 13.9649993-1.1697856 2.388222-2.6906307 4.6010927-4.5155232 6.5702081 6.901891-2.025809 11.9311972-7.7680171 12.8501543-14.6716577s-2.4432294-13.68562453-8.5905717-17.3283423c-.9140735 1.07151716-4.0127827 5.40168114-1.1151697 11.4647926z" fill="url(#f)"/><path d="m17.6942718 0c-3.0369663-.0048296-6.0265328.73904591-8.6942718 2.1634022.5146426 1.34091468 2.8510289 6.13691951 9.7098939 6.75374026 7.9655743.71068478 10.7255161 2.68182934 13.1666526 5.93131264 1.9720376 2.6147836 3.219932 5.9581308 3.6434874 7.1515449 1.2712299-5.3342148-.0136227-10.9460802-3.4878275-15.23382375-3.4742048-4.28774358-8.7560408-6.78025859-14.3379346-6.76617625z" fill="url(#g)"/></g></svg>

<svg viewBox="0 0 36 36" version="1.1" xmlns="http://www.w3.org/2000/svg" xmlns:xlink="http://www.w3.org/1999/xlink">
    <title>HLF-logo</title>
    <defs>
        <linearGradient x1="-5.79430943%" y1="63.5614771%" x2="101.985774%" y2="26.7076895%" id="linearGradient-1">
            <stop stop-color="#F9ED32" offset="0%"></stop>
            <stop stop-color="#0090B8" offset="100%"></stop>
        </linearGradient>
        <linearGradient x1="51.0638452%" y1="105.056489%" x2="49.6517916%" y2="0.840451915%" id="linearGradient-2">
            <stop stop-color="#F9ED32" offset="0%"></stop>
            <stop stop-color="#F3E93C" offset="2%"></stop>
            <stop stop-color="#0090B8" offset="100%"></stop>
        </linearGradient>
        <linearGradient x1="97.5709123%" y1="80.8619717%" x2="-8.68480515%" y2="34.9230636%" id="linearGradient-3">
            <stop stop-color="#F9ED32" offset="0%"></stop>
            <stop stop-color="#0090B8" offset="100%"></stop>
        </linearGradient>
        <linearGradient x1="103.601067%" y1="32.5899827%" x2="13.5002964%" y2="69.4398661%" id="linearGradient-4">
            <stop stop-color="#F9ED32" offset="0%"></stop>
            <stop stop-color="#0090B8" offset="100%"></stop>
        </linearGradient>
        <linearGradient x1="48.7861452%" y1="-1.65357586%" x2="50.3991636%" y2="98.5806807%" id="linearGradient-5">
            <stop stop-color="#F9ED32" offset="0%"></stop>
            <stop stop-color="#0090B8" offset="100%"></stop>
        </linearGradient>
        <linearGradient x1="-0.573511905%" y1="18.0584849%" x2="112.307125%" y2="66.6318469%" id="linearGradient-6">
            <stop stop-color="#F9ED32" offset="0%"></stop>
            <stop stop-color="#0090B8" offset="100%"></stop>
        </linearGradient>
    </defs>
    <g id="Final" stroke="none" stroke-width="1" fill="none" fill-rule="evenodd">
        <g id="Desktop-expanded" transform="translate(-268.000000, -3886.000000)" fill-rule="nonzero">
            <g id="Footer" transform="translate(120.000000, 3871.000000)">
                <g id="icon-copy" transform="translate(148.000000, 15.000000)">
                    <path d="M18,0 C8.0588745,0 0,8.0588745 0,18 C0,27.9411255 8.0588745,36 18,36 C27.9411255,36 36,27.9411255 36,18 C35.9826611,8.06606538 27.9339346,0.0173389106 18,0 L18,0 Z M25.371,23.4 C24.1820133,25.1471556 22.8174097,26.7680935 21.2985,28.2375 C19.9479552,27.5939122 18.4919019,27.2005491 17.001,27.0765 C14.8935591,26.9228958 12.8078252,26.5503894 10.7775,25.965 C10.6577994,24.4749339 10.2690157,23.0189008 9.63,21.6675 C8.71212756,19.7650258 7.99282553,17.7729965 7.4835,15.723 C8.71546566,14.8722679 9.78276793,13.8049657 10.6335,12.573 C11.8152983,10.8282123 13.1723513,9.20879579 14.6835,7.74 C16.0332347,8.39762658 17.4906066,8.80617853 18.9855,8.946 C21.0887403,9.09593121 23.1711005,9.46083429 25.2,10.035 C25.3158936,11.5305698 25.7064155,12.9919759 26.352,14.346 C27.2683938,16.2495713 27.9890915,18.2412905 28.503,20.2905 C27.2730825,21.1346233 26.2059181,22.1941651 25.353,23.418 L25.371,23.4 Z" id="Shape" fill="#FFFFFF"></path>
                    <path d="M17.8319502,0 C8.17982029,0.0130683373 0.283454203,7.93325177 0,17.8857521 C1.39596918,18.1150564 6.66864256,18.5507345 10.5542383,12.8823322 C15.0577949,6.30129866 18.1120332,4.90712849 22.0865442,4.4439338 C25.2919384,4.06328866 28.7551867,4.68699636 30,4.94381718 C26.6999543,1.76136356 22.3494681,-0.00621113581 17.8319502,0 Z" id="Path" fill="url(#linearGradient-1)" style="mix-blend-mode: multiply;"></path>
                    <path d="M9.85087476,21.5323781 C6.4820431,14.4780931 6.84822045,11.2154864 8.47770968,7.56930284 C9.64801671,5.180741 11.1712537,2.96801156 13,1 C6.09014547,3.03289836 1.05993021,8.77963301 0.147498749,15.6832512 C-0.764932715,22.5868694 2.60999906,29.364303 8.77065156,33 C9.68609495,31.9109948 12.7528303,27.5682006 9.85087476,21.5323781 Z" id="Path" fill="url(#linearGradient-2)" style="mix-blend-mode: multiply;"></path>
                    <path d="M18.3008297,36 C21.3393612,36.0048285 24.3305153,35.2608254 27,33.8361703 C26.4807825,32.4949823 24.1443038,27.6979999 17.289722,27.0810535 C9.31927803,26.3702238 6.56378169,24.3986775 4.12254857,21.1530026 C2.14587846,18.5332154 0.902489207,15.1847161 0.478917042,14 C-0.790554955,19.3338931 0.49455588,24.9447726 3.96766062,29.232087 C7.44076535,33.5194014 12.7205202,36.0124074 18.3008297,36 L18.3008297,36 Z" id="Path" fill="url(#linearGradient-3)" style="mix-blend-mode: multiply;"></path>
                    <path d="M18.163604,36 C27.8174602,35.9894193 35.7164923,28.0693756 36,18.1161529 C34.6040308,17.8822873 29.3313574,17.4512409 25.4457617,23.1144572 C20.9422051,29.6993791 17.8879668,31.088816 13.9134558,31.5565472 C11.2658537,31.7826419 8.60046782,31.612746 6,31.0521312 C9.29823911,34.2348346 13.6470145,36.0038122 18.163604,36 Z" id="Path" fill="url(#linearGradient-4)" style="mix-blend-mode: multiply;"></path>
                    <path d="M26.1444129,14.4647926 C29.5127738,21.5200496 29.1471444,24.783106 27.5155232,28.4297919 C26.3457376,30.8180139 24.8248925,33.0308846 23,35 C29.901891,32.974191 34.9311972,27.2319829 35.8501543,20.3283423 C36.7691114,13.4247017 33.4069249,6.64271777 27.2595826,3 C26.3455091,4.07151716 23.2467999,8.40168114 26.1444129,14.4647926 Z" id="Path" fill="url(#linearGradient-5)" style="mix-blend-mode: multiply;"></path>
                    <path d="M17.6942718,0 C14.6573055,-0.00482959544 11.667739,0.739045906 9,2.1634022 C9.5146426,3.50431688 11.8510289,8.30032171 18.7098939,8.91714246 C26.6754682,9.62782724 29.43541,11.5989718 31.8765465,14.8484551 C33.8485841,17.4632387 35.0964785,20.8065859 35.5200339,22 C36.7912638,16.6657852 35.5064112,11.0539198 32.0322064,6.76617625 C28.5580016,2.47843267 23.2761656,-0.0140823401 17.6942718,0 Z" id="Path" fill="url(#linearGradient-6)" style="mix-blend-mode: multiply;"></path>
                </g>
            </g>
        </g>
    </g>
</svg>
